; generated by Slic3r 1.2.9 on 2016-05-22 at 17:31:35

; external perimeters extrusion width = 0.40mm
; perimeters extrusion width = 0.67mm
; infill extrusion width = 0.67mm
; solid infill extrusion width = 0.67mm
; top infill extrusion width = 0.67mm

M107
M190 S65 ; set bed temperature
M104 S205 ; set temperature
G28 ; home all axes
G29 ; auto leveling
G1 Z5 F5000 ; lift nozzle

M109 S205 ; wait for temperature to be reached
G21 ; set units to millimeters
G90 ; use absolute coordinates
M82 ; use absolute distances for extrusion
G92 E0
G1 Z0.300 F7800.000
G1 E-1.00000 F2400.00000
G92 E0
G1 X48.491 Y97.099 F7800.000
G1 E1.00000 F2400.00000
G1 X50.008 Y96.382 E1.11210 F1800.000
G1 X50.697 Y96.096 E1.16197
G1 X52.277 Y95.531 E1.27406
G1 X52.992 Y95.314 E1.32393
G1 X54.497 Y94.937 E1.42762
G1 X55.351 Y94.761 E1.48589
G1 X57.011 Y94.514 E1.59799
G1 X57.754 Y94.441 E1.64786
G1 X59.430 Y94.359 E1.75995
G1 X140.570 Y94.359 E7.18053
G1 X142.246 Y94.441 E7.29264 F1800.000
G1 X142.989 Y94.514 E7.34250
G1 X144.649 Y94.761 E7.45460
G1 X145.381 Y94.906 E7.50447
G1 X147.008 Y95.314 E7.61657
G1 X147.723 Y95.531 E7.66643
G1 X149.303 Y96.096 E7.77853
G1 X149.992 Y96.382 E7.82840
G1 X151.509 Y97.099 E7.94050
G1 X152.167 Y97.451 E7.99037
G1 X153.607 Y98.314 E8.10247
G1 X154.227 Y98.728 E8.15233
G1 X155.575 Y99.728 E8.26443
G1 X156.152 Y100.201 E8.31430
G1 X157.395 Y101.328 E8.42640
G1 X157.923 Y101.856 E8.47627
G1 X159.050 Y103.099 E8.58836
G1 X159.524 Y103.677 E8.63824
G1 X160.523 Y105.024 E8.75033
G1 X160.938 Y105.645 E8.80020
G1 X161.801 Y107.084 E8.91230
G1 X162.153 Y107.743 E8.96217
G1 X162.870 Y109.259 E9.07426
G1 X163.156 Y109.949 E9.12413
G1 X163.721 Y111.529 E9.23623
G1 X163.938 Y112.243 E9.28610
G1 X164.345 Y113.871 E9.39821
G1 X164.491 Y114.603 E9.44806
G1 X164.737 Y116.263 E9.56017
G1 X164.810 Y117.006 E9.61003
G1 X164.902 Y119.055 E9.74707
G1 X164.902 Y165.098 E12.82301
G1 X164.810 Y167.148 E12.96004
G1 X164.737 Y167.890 E13.00992
G1 X164.491 Y169.550 E13.12201
G1 X164.345 Y170.282 E13.17188
G1 X163.938 Y171.910 E13.28398
G1 X163.721 Y172.624 E13.33385
G1 X163.156 Y174.204 E13.44594
G1 X162.870 Y174.894 E13.49581
G1 X162.153 Y176.411 E13.60791
G1 X161.801 Y177.069 E13.65778
G1 X160.938 Y178.508 E13.76988
G1 X160.523 Y179.129 E13.81975
G1 X159.524 Y180.477 E13.93184
G1 X159.212 Y180.869 E13.96534
G1 X149.468 Y192.344 E14.97099
G1 X148.677 Y193.152 E15.04654
G1 X147.917 Y193.777 E15.11227
G1 X147.703 Y193.930 E15.12984
G1 X146.845 Y194.464 E15.19736
G1 X146.613 Y194.588 E15.21493
G1 X145.664 Y195.014 E15.28445
G1 X145.416 Y195.106 E15.30209
G1 X144.388 Y195.404 E15.37358
G1 X144.127 Y195.461 E15.39143
G1 X143.045 Y195.614 E15.46448
G1 X142.252 Y195.650 E15.51746
G1 X61.859 Y195.650 E20.88817
G1 X57.672 Y195.635 E21.16788
G1 X56.852 Y195.593 E21.22273
G1 X55.771 Y195.432 E21.29574
G1 X55.511 Y195.374 E21.31357
G1 X54.485 Y195.067 E21.38509
G1 X54.238 Y194.974 E21.40270
G1 X53.292 Y194.541 E21.47222
G1 X53.061 Y194.416 E21.48976
G1 X52.207 Y193.876 E21.55724
G1 X51.995 Y193.721 E21.57483
G1 X51.240 Y193.092 E21.64050
G1 X51.048 Y192.909 E21.65818
G1 X50.483 Y192.311 E21.71313
G1 X40.782 Y180.863 E22.71559
G1 X39.477 Y179.129 E22.86059
G1 X39.062 Y178.508 E22.91046
G1 X38.199 Y177.069 E23.02256
G1 X37.847 Y176.411 E23.07243
G1 X37.130 Y174.894 E23.18453
G1 X36.844 Y174.204 E23.23439
G1 X36.321 Y172.743 E23.33808
G1 X36.062 Y171.910 E23.39635
G1 X35.655 Y170.282 E23.50845
G1 X35.509 Y169.550 E23.55832
G1 X35.281 Y168.015 E23.66201
G1 X35.190 Y167.147 E23.72028
G1 X35.107 Y165.471 E23.83238
G1 X35.098 Y119.055 E26.93325
G1 X35.190 Y117.006 E27.07029
G1 X35.263 Y116.263 E27.12015
G1 X35.509 Y114.603 E27.23225
G1 X35.655 Y113.871 E27.28212
G1 X36.062 Y112.243 E27.39422
G1 X36.279 Y111.529 E27.44409
G1 X36.844 Y109.949 E27.55618
G1 X37.130 Y109.259 E27.60605
G1 X37.847 Y107.743 E27.71815
G1 X38.199 Y107.084 E27.76802
G1 X38.997 Y105.753 E27.87171
G1 X39.477 Y105.024 E27.92998
G1 X40.476 Y103.677 E28.04208
G1 X40.950 Y103.100 E28.09194
G1 X41.992 Y101.949 E28.19563
G1 X42.605 Y101.328 E28.25390
G1 X43.848 Y100.201 E28.36600
G1 X44.425 Y99.728 E28.41587
G1 X45.773 Y98.728 E28.52796
G1 X46.393 Y98.314 E28.57783
G1 X47.833 Y97.451 E28.68993
G1 X48.438 Y97.127 E28.73579
G1 X48.720 Y97.583 F7800.000
G1 X50.237 Y96.866 E28.84789 F1800.000
G1 X50.878 Y96.600 E28.89425
G1 X52.458 Y96.035 E29.00634
G1 X53.122 Y95.834 E29.05270
G1 X54.627 Y95.456 E29.15639
G1 X55.430 Y95.291 E29.21115
G1 X57.090 Y95.044 E29.32324
G1 X57.780 Y94.976 E29.36960
G1 X59.456 Y94.894 E29.48170
G1 X140.544 Y94.894 E34.89877
G1 X142.220 Y94.976 E35.01087 F1800.000
G1 X142.910 Y95.044 E35.05722
G1 X144.570 Y95.291 E35.16932
G1 X145.251 Y95.426 E35.21568
G1 X146.878 Y95.834 E35.32778
G1 X147.542 Y96.035 E35.37413
G1 X149.122 Y96.600 E35.48623
G1 X149.763 Y96.866 E35.53259
G1 X151.280 Y97.583 E35.64469
G1 X151.892 Y97.910 E35.69104
G1 X153.331 Y98.773 E35.80314
G1 X153.908 Y99.159 E35.84950
G1 X155.256 Y100.158 E35.96160
G1 X155.792 Y100.598 E36.00795
G1 X157.036 Y101.725 E36.12005
G1 X157.526 Y102.216 E36.16641
G1 X158.653 Y103.459 E36.27851
G1 X159.094 Y103.996 E36.32487
G1 X160.093 Y105.343 E36.43696
G1 X160.479 Y105.920 E36.48332
G1 X161.341 Y107.360 E36.59542
G1 X161.668 Y107.972 E36.64177
G1 X162.386 Y109.488 E36.75387
G1 X162.651 Y110.130 E36.80023
G1 X163.217 Y111.709 E36.91233
G1 X163.418 Y112.373 E36.95869
G1 X163.826 Y114.001 E37.07079
G1 X163.961 Y114.682 E37.11714
G1 X164.207 Y116.342 E37.22924
G1 X164.275 Y117.032 E37.27560
G1 X164.366 Y119.055 E37.41087
G1 X164.366 Y165.098 E40.48682
G1 X164.275 Y167.121 E40.62209
G1 X164.207 Y167.812 E40.66845
G1 X163.961 Y169.472 E40.78055
G1 X163.826 Y170.152 E40.82691
G1 X163.418 Y171.780 E40.93900
G1 X163.217 Y172.444 E40.98536
G1 X162.651 Y174.024 E41.09746
G1 X162.386 Y174.665 E41.14382
G1 X161.668 Y176.182 E41.25591
G1 X161.341 Y176.794 E41.30227
G1 X160.479 Y178.233 E41.41437
G1 X160.093 Y178.810 E41.46073
G1 X158.804 Y180.523 E41.60394
G1 X149.059 Y191.997 E42.60960
G1 X148.311 Y192.761 E42.68107
G1 X147.604 Y193.342 E42.74217
G1 X147.391 Y193.495 E42.75975
G1 X146.593 Y193.992 E42.82251
G1 X146.361 Y194.116 E42.84008
G1 X145.478 Y194.512 E42.90470
G1 X145.231 Y194.603 E42.92234
G1 X144.275 Y194.881 E42.98879
G1 X144.014 Y194.937 E43.00664
G1 X143.008 Y195.079 E43.07454
G1 X142.252 Y195.115 E43.12508
G1 X61.859 Y195.115 E48.49579
G1 X57.674 Y195.099 E48.77537
G1 X56.893 Y195.059 E48.82763
G1 X55.888 Y194.909 E48.89550
G1 X55.627 Y194.851 E48.91333
G1 X54.674 Y194.566 E48.97982
G1 X54.427 Y194.473 E48.99743
G1 X53.547 Y194.071 E49.06205
G1 X53.317 Y193.945 E49.07959
G1 X52.523 Y193.444 E49.14232
G1 X52.310 Y193.288 E49.15991
G1 X51.608 Y192.703 E49.22096
G1 X51.417 Y192.521 E49.23863
G1 X50.892 Y191.965 E49.28972
G1 X41.191 Y180.517 E50.29217
G1 X39.907 Y178.810 E50.43486
G1 X39.521 Y178.233 E50.48122
G1 X38.659 Y176.794 E50.59332
G1 X38.332 Y176.182 E50.63967
G1 X37.614 Y174.665 E50.75177
G1 X37.349 Y174.024 E50.79813
G1 X36.826 Y172.562 E50.90182
G1 X36.582 Y171.780 E50.95657
G1 X36.174 Y170.152 E51.06867
G1 X36.039 Y169.472 E51.11503
G1 X35.793 Y167.812 E51.22713
G1 X35.725 Y167.121 E51.27348
G1 X35.642 Y165.445 E51.38559
G1 X35.634 Y119.055 E54.48470
G1 X35.725 Y117.032 E54.61998
G1 X35.793 Y116.342 E54.66634
G1 X36.039 Y114.682 E54.77843
G1 X36.174 Y114.001 E54.82479
G1 X36.582 Y112.373 E54.93689
G1 X36.783 Y111.709 E54.98325
G1 X37.349 Y110.130 E55.09534
G1 X37.614 Y109.488 E55.14170
G1 X38.332 Y107.972 E55.25380
G1 X38.659 Y107.360 E55.30016
G1 X39.521 Y105.920 E55.41225
G1 X39.907 Y105.343 E55.45861
G1 X40.906 Y103.996 E55.57071
G1 X41.347 Y103.459 E55.61707
G1 X42.389 Y102.309 E55.72075
G1 X42.964 Y101.725 E55.77551
G1 X44.208 Y100.598 E55.88761
G1 X44.744 Y100.158 E55.93397
G1 X46.092 Y99.159 E56.04606
G1 X46.669 Y98.773 E56.09242
G1 X48.108 Y97.910 E56.20452
G1 X48.667 Y97.612 E56.24687
G1 X48.949 Y98.067 F7800.000
G1 X50.466 Y97.350 E56.35897 F1800.000
G1 X51.058 Y97.105 E56.40181
G1 X52.638 Y96.539 E56.51391
G1 X53.252 Y96.353 E56.55676
G1 X54.757 Y95.976 E56.66045
G1 X55.509 Y95.820 E56.71169
G1 X57.168 Y95.574 E56.82379
G1 X57.807 Y95.511 E56.86664
G1 X59.483 Y95.429 E56.97873
G1 X140.517 Y95.429 E62.39229
G1 X142.193 Y95.511 E62.50439 F1800.000
G1 X142.832 Y95.574 E62.54723
G1 X144.491 Y95.820 E62.65933
G1 X145.120 Y95.945 E62.70218
G1 X146.748 Y96.353 E62.81428
G1 X147.362 Y96.539 E62.85712
G1 X148.942 Y97.105 E62.96922
G1 X149.534 Y97.350 E63.01206
G1 X151.051 Y98.067 E63.12416
G1 X151.617 Y98.370 E63.16701
G1 X153.056 Y99.232 E63.27911
G1 X153.589 Y99.589 E63.32195
G1 X154.937 Y100.588 E63.43405
G1 X155.433 Y100.995 E63.47689
G1 X156.676 Y102.122 E63.58899
G1 X157.130 Y102.576 E63.63184
G1 X158.256 Y103.819 E63.74393
G1 X158.663 Y104.315 E63.78678
G1 X159.663 Y105.662 E63.89888
G1 X160.019 Y106.196 E63.94172
G1 X160.882 Y107.635 E64.05382
G1 X161.184 Y108.201 E64.09667
G1 X161.902 Y109.717 E64.20876
G1 X162.147 Y110.310 E64.25161
G1 X162.712 Y111.890 E64.36371
G1 X162.899 Y112.504 E64.40656
G1 X163.306 Y114.131 E64.51866
G1 X163.431 Y114.760 E64.56150
G1 X163.678 Y116.420 E64.67360
G1 X163.740 Y117.058 E64.71644
G1 X163.831 Y119.055 E64.84996
G1 X163.831 Y165.098 E67.92591
G1 X163.740 Y167.095 E68.05943
G1 X163.678 Y167.733 E68.10228
G1 X163.431 Y169.393 E68.21437
G1 X163.306 Y170.022 E68.25722
G1 X162.899 Y171.650 E68.36932
G1 X162.712 Y172.264 E68.41216
G1 X162.147 Y173.843 E68.52426
G1 X161.902 Y174.436 E68.56711
G1 X161.184 Y175.953 E68.67920
G1 X160.882 Y176.518 E68.72205
G1 X160.019 Y177.958 E68.83415
G1 X159.663 Y178.491 E68.87699
G1 X158.395 Y180.176 E69.01785
G1 X148.651 Y191.650 E70.02351
G1 X147.945 Y192.370 E70.09091
G1 X147.292 Y192.907 E70.14737
G1 X147.078 Y193.060 E70.16495
G1 X146.341 Y193.519 E70.22296
G1 X146.109 Y193.643 E70.24052
G1 X145.293 Y194.009 E70.30026
G1 X145.045 Y194.101 E70.31789
G1 X144.163 Y194.357 E70.37931
G1 X143.901 Y194.413 E70.39716
G1 X142.971 Y194.545 E70.45991
G1 X142.252 Y194.579 E70.50800
G1 X61.859 Y194.579 E75.87871
G1 X57.676 Y194.564 E76.15816
G1 X56.933 Y194.524 E76.20784
G1 X56.005 Y194.386 E76.27057
G1 X55.744 Y194.328 E76.28840
G1 X54.863 Y194.065 E76.34984
G1 X54.616 Y193.972 E76.36745
G1 X53.803 Y193.600 E76.42718
G1 X53.572 Y193.475 E76.44472
G1 X52.839 Y193.011 E76.50270
G1 X52.626 Y192.856 E76.52029
G1 X51.977 Y192.315 E76.57671
G1 X51.786 Y192.133 E76.59439
G1 X51.300 Y191.619 E76.64160
G1 X41.600 Y180.170 E77.64406
G1 X40.337 Y178.491 E77.78443
G1 X39.981 Y177.958 E77.82728
G1 X39.118 Y176.518 E77.93937
G1 X38.816 Y175.953 E77.98222
G1 X38.098 Y174.436 E78.09432
G1 X37.853 Y173.843 E78.13716
G1 X37.330 Y172.382 E78.24085
G1 X37.101 Y171.650 E78.29210
G1 X36.694 Y170.022 E78.40420
G1 X36.569 Y169.393 E78.44704
G1 X36.341 Y167.858 E78.55073
G1 X36.260 Y167.095 E78.60197
G1 X36.177 Y165.419 E78.71408
G1 X36.169 Y119.055 E81.81144
G1 X36.260 Y117.058 E81.94496
G1 X36.322 Y116.420 E81.98781
G1 X36.569 Y114.760 E82.09990
G1 X36.694 Y114.131 E82.14275
G1 X37.101 Y112.504 E82.25485
G1 X37.288 Y111.890 E82.29769
G1 X37.853 Y110.310 E82.40979
G1 X38.098 Y109.717 E82.45264
G1 X38.816 Y108.201 E82.56473
G1 X39.118 Y107.635 E82.60758
G1 X39.981 Y106.196 E82.71968
G1 X40.337 Y105.662 E82.76252
G1 X41.337 Y104.315 E82.87462
G1 X41.744 Y103.819 E82.91746
G1 X42.786 Y102.669 E83.02115
G1 X43.324 Y102.122 E83.07240
G1 X44.567 Y100.995 E83.18450
G1 X45.063 Y100.588 E83.22734
G1 X46.411 Y99.589 E83.33944
G1 X46.944 Y99.232 E83.38229
G1 X48.383 Y98.370 E83.49439
G1 X48.896 Y98.096 E83.53322
G1 E82.53322 F2400.00000
G92 E0
G1 X99.280 Y177.992 F7800.000
G1 E1.00000 F2400.00000
G1 X97.497 Y178.114 E1.11937 F1800.000
G1 X97.065 Y178.207 E1.14891
G1 X96.658 Y178.358 E1.17794
G1 X96.280 Y178.559 E1.20655
G1 X95.936 Y178.806 E1.23483
G1 X95.629 Y179.094 E1.26292
G1 X95.362 Y179.417 E1.29096
G1 X95.136 Y179.772 E1.31906
G1 X95.028 Y180.001 E1.33596
G1 X93.982 Y179.627 E1.41015
G1 X92.587 Y178.967 E1.51324
G1 X91.263 Y178.174 E1.61634
G1 X90.024 Y177.254 E1.71943
G1 X88.880 Y176.218 E1.82253
G1 X87.844 Y175.074 E1.92562
G1 X86.925 Y173.835 E2.02872
G1 X86.131 Y172.511 E2.13181
G1 X85.472 Y171.116 E2.23491
G1 X84.992 Y169.777 E2.32991
G1 X84.576 Y168.162 E2.44138
G1 X84.350 Y166.640 E2.54416
G1 X84.275 Y165.098 E2.64725
G1 X84.350 Y163.557 E2.75035
G1 X84.577 Y162.030 E2.85344
G1 X84.952 Y160.533 E2.95654
G1 X85.472 Y159.080 E3.05964
G1 X86.131 Y157.685 E3.16273
G1 X86.925 Y156.362 E3.26583
G1 X87.844 Y155.122 E3.36892
G1 X88.880 Y153.979 E3.47202
G1 X90.024 Y152.942 E3.57511
G1 X91.263 Y152.023 E3.67821
G1 X92.587 Y151.230 E3.78130
G1 X93.982 Y150.570 E3.88440
G1 X95.435 Y150.050 E3.98749
G1 X96.932 Y149.675 E4.09059
G1 X98.459 Y149.449 E4.19369
G1 X100.000 Y149.373 E4.29678
G1 X101.420 Y149.443 E4.39178
G1 X103.072 Y149.676 E4.50325
G1 X104.565 Y150.050 E4.60603
G1 X106.018 Y150.570 E4.70913
G1 X107.413 Y151.230 E4.81222
G1 X108.737 Y152.023 E4.91532
G1 X109.976 Y152.942 E5.01841
G1 X111.120 Y153.979 E5.12151
G1 X112.156 Y155.122 E5.22460
G1 X113.075 Y156.362 E5.32770
G1 X113.869 Y157.685 E5.43080
G1 X114.528 Y159.080 E5.53389
G1 X115.048 Y160.533 E5.63699
G1 X115.423 Y162.030 E5.74008
G1 X115.650 Y163.557 E5.84318
G1 X115.725 Y165.098 E5.94627
G1 X115.650 Y166.640 E6.04937
G1 X115.423 Y168.166 E6.15246
G1 X115.048 Y169.663 E6.25556
G1 X114.528 Y171.116 E6.35866
G1 X113.869 Y172.511 E6.46175
G1 X113.075 Y173.835 E6.56485
G1 X112.156 Y175.074 E6.66794
G1 X111.120 Y176.218 E6.77104
G1 X109.976 Y177.254 E6.87413
G1 X108.737 Y178.174 E6.97723
G1 X107.413 Y178.967 E7.08032
G1 X106.018 Y179.627 E7.18342
G1 X104.565 Y180.147 E7.28652
G1 X102.710 Y180.611 E7.41423
G1 X102.710 Y180.802 E7.42698
G1 X99.356 Y180.426 E7.65247
G1 X99.282 Y178.052 E7.81117
G1 X98.762 Y178.564 F7800.000
G1 X97.573 Y178.646 E7.89081 F1800.000
G1 X97.215 Y178.723 E7.91525
G1 X96.877 Y178.847 E7.93930
G1 X96.563 Y179.015 E7.96307
G1 X96.277 Y179.221 E7.98665
G1 X96.020 Y179.462 E8.01015
G1 X95.796 Y179.733 E8.03367
G1 X95.606 Y180.031 E8.05732
G1 X95.453 Y180.354 E8.08117
G1 X95.345 Y180.683 E8.10431
G1 X93.777 Y180.122 E8.21557
G1 X92.334 Y179.440 E8.32218
G1 X90.965 Y178.619 E8.42879
G1 X89.684 Y177.669 E8.53540
G1 X88.501 Y176.597 E8.64201
G1 X87.430 Y175.415 E8.74862
G1 X86.479 Y174.133 E8.85523
G1 X85.658 Y172.764 E8.96185
G1 X84.976 Y171.321 E9.06846
G1 X84.480 Y169.935 E9.16685
G1 X84.050 Y168.268 E9.28183
G1 X83.817 Y166.692 E9.38825
G1 X83.738 Y165.098 E9.49486
G1 X83.817 Y163.504 E9.60147
G1 X84.051 Y161.926 E9.70808
G1 X84.439 Y160.378 E9.81470
G1 X84.976 Y158.875 E9.92131
G1 X85.658 Y157.433 E10.02792
G1 X86.479 Y156.064 E10.13453
G1 X87.430 Y154.782 E10.24114
G1 X88.501 Y153.600 E10.34775
G1 X89.684 Y152.528 E10.45436
G1 X90.965 Y151.577 E10.56097
G1 X92.334 Y150.757 E10.66759
G1 X93.777 Y150.074 E10.77420
G1 X95.279 Y149.537 E10.88081
G1 X96.827 Y149.149 E10.98742
G1 X98.406 Y148.915 E11.09403
G1 X100.000 Y148.837 E11.20064
G1 X101.471 Y148.909 E11.29904
G1 X103.175 Y149.150 E11.41402
G1 X104.721 Y149.537 E11.52044
G1 X106.223 Y150.074 E11.62705
G1 X107.666 Y150.757 E11.73366
G1 X109.035 Y151.577 E11.84027
G1 X110.316 Y152.528 E11.94688
G1 X111.499 Y153.600 E12.05350
G1 X112.570 Y154.782 E12.16011
G1 X113.521 Y156.064 E12.26672
G1 X114.342 Y157.433 E12.37333
G1 X115.024 Y158.875 E12.47994
G1 X115.561 Y160.378 E12.58655
G1 X115.949 Y161.926 E12.69316
G1 X116.183 Y163.504 E12.79977
G1 X116.262 Y165.098 E12.90639
G1 X116.183 Y166.692 E13.01300
G1 X115.949 Y168.271 E13.11961
G1 X115.561 Y169.819 E13.22622
G1 X115.024 Y171.321 E13.33283
G1 X114.342 Y172.764 E13.43944
G1 X113.521 Y174.133 E13.54605
G1 X112.570 Y175.415 E13.65267
G1 X111.499 Y176.597 E13.75928
G1 X110.316 Y177.669 E13.86589
G1 X109.035 Y178.619 E13.97250
G1 X107.666 Y179.440 E14.07911
G1 X106.223 Y180.122 E14.18572
G1 X104.721 Y180.660 E14.29233
G1 X103.245 Y181.029 E14.39397
G1 X103.229 Y185.877 E14.71778
G1 X103.215 Y186.088 E14.73196
G1 X103.127 Y186.429 E14.75546
G1 X102.966 Y186.722 E14.77779
G1 X102.748 Y186.953 E14.79903
G1 X102.492 Y187.113 E14.81920
G1 X102.210 Y187.195 E14.83884
